icon/lg/aurelia.svg

<?xml version="1.0" encoding="UTF-8" standalone="no"?>
<svg viewBox="0 0 256 249" version="1.1" xmlns="http://www.w3.org/2000/svg" xmlns:xlink="http://www.w3.org/1999/xlink" preserveAspectRatio="xMidYMid" height="1em" width="1em">
  <defs>
    <linearGradient x1="-388.147851%" y1="-113.677693%" x2="237.683809%" y2="370.654866%" id="linearGradient-1">
      <stop stop-color="#C06FBB" offset="0%"/>
      <stop stop-color="#6E4D9B" offset="100%"/>
    </linearGradient>
    <linearGradient x1="72.9454854%" y1="79.5146865%" x2="-97.0517904%" y2="-119.502084%" id="linearGradient-2">
      <stop stop-color="#6E4D9B" offset="0%"/>
      <stop stop-color="#77327A" offset="14%"/>
      <stop stop-color="#B31777" offset="29%"/>
      <stop stop-color="#CD0F7E" offset="84%"/>
      <stop stop-color="#ED2C89" offset="100%"/>
    </linearGradient>
    <linearGradient x1="-232.211989%" y1="-693.599872%" x2="250.775991%" y2="101.70976%" id="linearGradient-3">
      <stop stop-color="#C06FBB" offset="0%"/>
      <stop stop-color="#6E4D9B" offset="100%"/>
    </linearGradient>
    <linearGradient x1="-821.186214%" y1="-466.930382%" x2="101.985142%" y2="287.264085%" id="linearGradient-4">
      <stop stop-color="#C06FBB" offset="0%"/>
      <stop stop-color="#6E4D9B" offset="100%"/>
    </linearGradient>
    <linearGradient x1="-140.094614%" y1="-230.925718%" x2="418.49908%" y2="261.976742%" id="linearGradient-5">
      <stop stop-color="#C06FBB" offset="0%"/>
      <stop stop-color="#6E4D9B" offset="100%"/>
    </linearGradient>
    <linearGradient x1="191.083716%" y1="225.066658%" x2="20.3577022%" y2="24.5947708%" id="linearGradient-6">
      <stop stop-color="#6E4D9B" offset="0%"/>
      <stop stop-color="#77327A" offset="14%"/>
      <stop stop-color="#B31777" offset="29%"/>
      <stop stop-color="#CD0F7E" offset="84%"/>
      <stop stop-color="#ED2C89" offset="100%"/>
    </linearGradient>
    <linearGradient x1="-388.094004%" y1="-138.727507%" x2="237.674802%" y2="445.404664%" id="linearGradient-7">
      <stop stop-color="#C06FBB" offset="0%"/>
      <stop stop-color="#6E4D9B" offset="100%"/>
    </linearGradient>
    <linearGradient x1="11.503492%" y1="89.6525993%" x2="89.8192643%" y2="11.5773982%" id="linearGradient-8">
      <stop stop-color="#6E4D9B" offset="0%"/>
      <stop stop-color="#77327A" offset="14%"/>
      <stop stop-color="#B31777" offset="53%"/>
      <stop stop-color="#CD0F7E" offset="79%"/>
      <stop stop-color="#ED2C89" offset="100%"/>
    </linearGradient>
  </defs>
  <g>
    <path d="M167.876207,46.3687469 L144.195715,62.173447 L119.80056,25.6145151 L143.481051,9.80981504 L167.876207,46.3687469 L167.876207,46.3687469 L167.876207,46.3687469 Z" fill="url(#linearGradient-1)"/>
    <path d="M187.128711,156.199437 L227.589323,216.829994 L179.391024,248.994707 L138.930412,188.363184 L131.871655,177.787122 L180.07092,145.622408 L187.128711,156.199437 L187.128711,156.199437 L187.128711,156.199437 Z" fill="url(#linearGradient-2)"/>
    <path d="M126.421861,196.710267 L135.330053,210.059034 L98.6436403,234.541108 L82.6766922,210.615313 L90.6915535,205.266921 L119.36407,186.133238 L126.421861,196.710267 L126.421861,196.710267 L126.421861,196.710267 Z" fill="url(#linearGradient-3)"/>
    <path d="M207.172143,127.536576 L217.46234,120.670006 L233.428323,144.595801 L209.744934,160.400501 L200.836742,147.051735 L214.229934,138.113604 L207.172143,127.536576 L207.172143,127.536576 L207.172143,127.536576 L207.172143,127.536576 Z M200.836742,147.051735 L193.778952,136.474706 L207.172143,127.536576 L214.229934,138.113604 L200.836742,147.051735 L200.836742,147.051735 L200.836742,147.051735 L200.836742,147.051735 Z" fill="url(#linearGradient-4)"/>
    <path d="M41.1093181,130.966968 L33.0954225,136.315359 L8.69833531,99.7564274 L45.3847478,75.2743531 L62.4855008,100.900856 L33.8139497,120.034538 L62.4855008,100.900856 L69.781835,111.834251 L41.1093181,130.966968 L41.1093181,130.966968 L41.1093181,130.966968 Z" fill="url(#linearGradient-5)"/>
    <path d="M130.488688,71.3224496 L82.2894234,103.487163 L74.994055,92.5537678 L34.9120223,32.4910791 L83.1112871,0.3263657 L123.19332,60.3890547 L130.488688,71.3224496 Z" fill="url(#linearGradient-6)"/>
    <path d="M157.589904,53.2375841 L144.196713,62.1747484 L136.900379,51.2423191 L119.799626,25.6158165 L143.483014,9.81111647 L167.880102,46.3700483 L157.589904,53.2375841 L157.589904,53.2375841 L157.589904,53.2375841 Z" fill="url(#linearGradient-7)"/>
    <path d="M97.7503053,215.84395 L90.6915487,205.266921 L119.364066,186.133238 L126.421857,196.710267 L97.7503053,215.84395 L97.7503053,215.84395 L97.7503053,215.84395 Z" fill="#714896"/>
    <path d="M200.836744,147.051736 L193.778953,136.474708 L207.172145,127.536577 L214.229936,138.113606 L200.836744,147.051736 L200.836744,147.051736 L200.836744,147.051736 Z" fill="#6F4795"/>
    <path d="M41.1093172,130.966965 L33.8139488,120.034536 L62.4854999,100.900853 L69.7818341,111.834248 L41.1093172,130.966965 L41.1093172,130.966965 L41.1093172,130.966965 Z" fill="#88519F"/>
    <path d="M144.196718,62.1747499 L136.900384,51.2423206 L150.294542,42.3041905 L157.58991,53.2375855 L144.196718,62.1747499 L144.196718,62.1747499 L144.196718,62.1747499 Z" fill="#85509E"/>
    <path d="M187.128711,156.199434 L138.930412,188.363182 L131.871655,177.787119 L180.07092,145.622405 L187.128711,156.199434 L187.128711,156.199434 L187.128711,156.199434 Z" fill="#8D166A"/>
    <path d="M123.19332,60.3890532 L130.488688,71.3224482 L82.2894233,103.487162 L74.9940548,92.5537666 L123.19332,60.3890532 L123.19332,60.3890532 L123.19332,60.3890532 Z" fill="#A70D6F"/>
    <path d="M27.4386316,51.6530056 L36.5361217,65.2857977 L22.9033297,74.3832878 L13.8058395,60.7504958 L27.4386316,51.6530056 L27.4386316,51.6530056 Z" fill="#9E61AD"/>
    <path d="M76.5679915,215.084186 L85.6654817,228.716978 L72.0326896,237.814468 L62.9351995,224.181676 L76.5679915,215.084186 L76.5679915,215.084186 Z" fill="#8053A3"/>
    <path d="M40.7042434,228.813811 L0.791684264,168.517994 L214.08857,25.8555586 L255.941111,85.1892808 L40.7042434,228.813811 L40.7042434,228.813811 L40.7042434,228.813811 L40.7042434,228.813811 Z" fill="url(#linearGradient-8)"/>
  </g>
</svg>

<svg width="256" height="249" xmlns="http://www.w3.org/2000/svg" preserveAspectRatio="xMidYMid"><defs><linearGradient x1="-388.148%" y1="-113.678%" x2="237.684%" y2="370.655%" id="a"><stop stop-color="#C06FBB" offset="0%"/><stop stop-color="#6E4D9B" offset="100%"/></linearGradient><linearGradient x1="72.945%" y1="79.515%" x2="-97.052%" y2="-119.502%" id="b"><stop stop-color="#6E4D9B" offset="0%"/><stop stop-color="#77327A" offset="14%"/><stop stop-color="#B31777" offset="29%"/><stop stop-color="#CD0F7E" offset="84%"/><stop stop-color="#ED2C89" offset="100%"/></linearGradient><linearGradient x1="-232.212%" y1="-693.6%" x2="250.776%" y2="101.71%" id="c"><stop stop-color="#C06FBB" offset="0%"/><stop stop-color="#6E4D9B" offset="100%"/></linearGradient><linearGradient x1="-821.186%" y1="-466.93%" x2="101.985%" y2="287.264%" id="d"><stop stop-color="#C06FBB" offset="0%"/><stop stop-color="#6E4D9B" offset="100%"/></linearGradient><linearGradient x1="-140.095%" y1="-230.926%" x2="418.499%" y2="261.977%" id="e"><stop stop-color="#C06FBB" offset="0%"/><stop stop-color="#6E4D9B" offset="100%"/></linearGradient><linearGradient x1="191.084%" y1="225.067%" x2="20.358%" y2="24.595%" id="f"><stop stop-color="#6E4D9B" offset="0%"/><stop stop-color="#77327A" offset="14%"/><stop stop-color="#B31777" offset="29%"/><stop stop-color="#CD0F7E" offset="84%"/><stop stop-color="#ED2C89" offset="100%"/></linearGradient><linearGradient x1="-388.094%" y1="-138.728%" x2="237.675%" y2="445.405%" id="g"><stop stop-color="#C06FBB" offset="0%"/><stop stop-color="#6E4D9B" offset="100%"/></linearGradient><linearGradient x1="11.503%" y1="89.653%" x2="89.819%" y2="11.577%" id="h"><stop stop-color="#6E4D9B" offset="0%"/><stop stop-color="#77327A" offset="14%"/><stop stop-color="#B31777" offset="53%"/><stop stop-color="#CD0F7E" offset="79%"/><stop stop-color="#ED2C89" offset="100%"/></linearGradient></defs><path d="m167.876 46.369-23.68 15.804L119.8 25.615 143.48 9.81l24.395 36.559Z" fill="url(#a)"/><path d="m187.129 156.2 40.46 60.63-48.198 32.165-40.46-60.632-7.06-10.576 48.2-32.165 7.058 10.577Z" fill="url(#b)"/><path d="m126.422 196.71 8.908 13.349-36.686 24.482-15.967-23.926 8.015-5.348 28.672-19.134 7.058 10.577Z" fill="url(#c)"/><path d="m207.172 127.537 10.29-6.867 15.966 23.926-23.683 15.805-8.908-13.35 13.393-8.937-7.058-10.577Zm-6.335 19.515-7.058-10.577 13.393-8.938 7.058 10.577-13.393 8.938Z" fill="url(#d)"/><path d="m41.11 130.967-8.015 5.348L8.698 99.756l36.687-24.482 17.1 25.627-28.671 19.134L62.486 100.9l7.296 10.933-28.673 19.133Z" fill="url(#e)"/><path d="m130.489 71.322-48.2 32.165-7.295-10.933L34.912 32.49 83.112.326l40.081 60.063 7.296 10.933Z" fill="url(#f)"/><path d="m157.59 53.238-13.393 8.937-7.297-10.933-17.1-25.626L143.483 9.81 167.88 46.37l-10.29 6.868Z" fill="url(#g)"/><path d="m97.75 215.844-7.058-10.577 28.672-19.134 7.058 10.577-28.672 19.134Z" fill="#714896"/><path d="m200.837 147.052-7.058-10.577 13.393-8.938 7.058 10.577-13.393 8.938Z" fill="#6F4795"/><path d="m41.11 130.967-7.296-10.932L62.485 100.9l7.297 10.933-28.673 19.133Z" fill="#88519F"/><path d="M144.197 62.175 136.9 51.242l13.395-8.938 7.295 10.934-13.393 8.937Z" fill="#85509E"/><path d="m187.129 156.2-48.199 32.163-7.058-10.576 48.199-32.165 7.058 10.577Z" fill="#8D166A"/><path d="m123.193 60.39 7.296 10.932-48.2 32.165-7.295-10.933 48.2-32.165Z" fill="#A70D6F"/><path d="m27.439 51.653 9.097 13.633-13.633 9.097-9.097-13.633 13.633-9.097Z" fill="#9E61AD"/><path d="m76.568 215.084 9.097 13.633-13.632 9.097-9.098-13.632 13.633-9.098Z" fill="#8053A3"/><path d="M40.704 228.814.792 168.518 214.089 25.856l41.852 59.333L40.704 228.814Z" fill="url(#h)"/></svg>
